X:447
L:1/8
M:2/2
K:Edor
 GA | BABG DEGA | B2 E2 E2 Bc | dfge dBAG | E2 A2 A2 GA | BABA DEGA | BABd efge | dfge dBAB | 
 G2 E2 E2 :: df | gage dBdf | gfga gbag | a2 a2 bagf | e2 a2 a2 ga | bagf efge | dBge dBAG | 
 dBge dBA[GB] | G2 E2 E2 :|

